X:1
T:Run Not the Risk
T:Run Not the Risk
T:E. B. McClurd
T:Katharyn Bacon, 1913
T:Public Domain Courtesy of the Cyber Hymnal™
T:Public Domain Courtesy of the Cyber Hymnal™
C:E. B. McClurd
Z:Public Domain
Z:Courtesy of the Cyber Hymnal™
%%score ( 1 2 ) ( 3 4 )
L:1/8
Q:1/4=90
M:4/4
K:Ab
V:1 treble 
V:2 treble 
V:3 bass 
V:4 bass 
V:1
 [Ec][DB][CA] | [CA]4- [CA][CA][Ec][CA] | [Ec]4- [Ec][CA][DF][CA] | [CE]4- [CE][EA][EB][Ec] | %4
w: 1.~O soul a-|drift * and in des-|pair, * Op- pressed with|sin * and doubt and|
w: 2.~He gave His|life * on Cal- va-|ry, * All guilt- y|souls * from sin to|
w: 3.~O trust the|Lord, * for life is|brief, * And be not|lost * in un- be-|
w: 4.~Re- pent, be-|lieve, * and turn from|sin; * O let the|Lord * of glo- ry|
 [EB]4- [EB][Ge][Ge][Fd] | [Ec]4- [Ec][CA][DB][CA] | [Fd]4- [Fd][Fd][Ec][CA] | %7
w: care, * While Je- sus|pleads, * His voice o-|bey; * Run not the|
w: free; * O spurn Him|not * who for you|died; * Run not the|
w: lief; * Con- fess Him|now * with faith sin-|cere, * Run not the|
w: in! * With par- doning|grace * He will en-|dow; * Run not the|
 [Ec]4- [Ec][EA][DB][DB] | A4- !fermata![EA] ||"^Refrain" EEF | (z eee [Ae])ECD | z eec [EA]EAE | %12
w: risk * an- o- ther|day! *||||
w: risk, * what- e’er be-|tide. Run|* not the|* * * * risk, for none|* * * * can tell, When|
w: risk, * for death is|near. *||||
w: risk, * ac- cept Him|now! *||||
 z AAA [FA][Fd][Ad][Fd] | BBBc [Ed]cc=B | (z [Ac])AF A x3 | z [CE]AB =B x3 | %16
w: ||||
w: * * * * you to earth|* * * * * must say fare-|* well; * Run|* not the risk,|
w: ||||
w: ||||
 z [Ac][EA][EA] [EB] x3 | A4- !fermata![EA] |] %18
w: ||
w: * * lest you|* shall|
w: ||
w: ||
V:2
 x3 | x8 | x8 | x8 | x8 | x8 | x8 | x8 | C E F F x || x3 | A4- x4 | E4- x4 | F4- x4 | E4- x4 | %14
 c4- A A A x | E4- C C C x | c4 A A A x | E E F F x |] %18
V:3
 z3 | z ([A,,E,][A,,E,][A,,E,] [A,,E,]) z3 | z ([A,,A,][A,,A,][A,,A,] [A,,A,]) z3 | %3
w: |~ * * *|~ * * *|
 z ([A,,A,][A,,A,][A,,A,] [A,,A,])[B,,G,][G,,A,][A,,A,] | ([E,G,][E,G,][E,G,][E,G,] [E,G,]) z3 | %5
w: ~ * * * ~ ~ ~|~ * * * *|
 z ([A,,A,][A,,A,][A,,A,] [A,,A,]) z3 | z ([D,A,][D,A,][D,A,] [D,A,]) z3 | %7
w: ~ * * *|~ * * *|
 z ([A,,A,][A,,A,][A,,A,] [A,,A,])[C,A,][E,G,][E,G,] | (A,CDD !fermata![A,,C]) || CCD | %10
w: ~ * * * ~ ~ ~|~ * * * *|~ ~ ~|
 z [A,C]CA, B, x3 | z [A,C]CA, C x3 | z [D,D][D,D][D,F,] [D,A,] x3 | G,4- [E,G,] z3 | %14
w: Run not the risk,|~ ~ ~ for|can tell ~ ~|~ When|
 z [A,E][A,E][A,E] [A,E] z3 | z [A,,A,][C,A,][F,A,] [A,,A,] z3 | %16
w: you to earth ~|~ * ~ ~|
 z [A,E][A,E][A,E] [A,E][C,E][E,C][E,D] | CCDD !fermata![A,,C] |] %18
w: must say fare- well; Run not the|risk, lest you should Un-|
V:4
 x3 | x8 | x8 | x8 | x8 | x8 | x8 | x8 | A,,4- x || x3 | C4- A,A,A, x | C4- A,A,A, x | %12
 D4- D,D,D, x | E, E, E, E, x4 | x8 | x8 | x8 | A,,4- x |] %18

